Include/imtgui/Resources/Icons/ZoomToFit.svg

<?xml version="1.0"?>
<svg xmlns="http://www.w3.org/2000/svg" height="512px" viewBox="0 0 512 512" width="512px"><path d="m121 211h30v-38.789062l188.789062 188.789062h-38.789062v30h90v-90h-30v38.789062l-188.789062-188.789062h38.789062v-30h-90zm0 0" fill="#335777"/><path d="m421 31h-60v30h60v30h30v60h30v-60h31v-91h-91zm0 0" fill="#335777"/><path d="m181 31h60v30h-60zm0 0" fill="#335777"/><path d="m271 31h60v30h-60zm0 0" fill="#335777"/><path d="m451 271h30v60h-30zm0 0" fill="#335777"/><path d="m451 181h30v60h-30zm0 0" fill="#335777"/><path d="m481 361h-30v60h-30v30h-60v30h60v31h91v-91h-31zm0 0" fill="#335777"/><path d="m31 271h30v60h-30zm0 0" fill="#335777"/><path d="m31 181h30v60h-30zm0 0" fill="#335777"/><path d="m31 151h30v-60h30v-30h60v-30h-60v-31h-91v91h31zm0 0" fill="#335777"/><path d="m91 481h60v-30h-60v-30h-30v-60h-30v60h-31v91h91zm0 0" fill="#335777"/><path d="m181 451h60v30h-60zm0 0" fill="#335777"/><path d="m271 451h60v30h-60zm0 0" fill="#335777"/></svg>

<?xml version="1.0" encoding="UTF-8" standalone="no"?>
<svg
   xmlns:dc="http://purl.org/dc/elements/1.1/"
   xmlns:cc="http://creativecommons.org/ns#"
   xmlns:rdf="http://www.w3.org/1999/02/22-rdf-syntax-ns#"
   xmlns:svg="http://www.w3.org/2000/svg"
   xmlns="http://www.w3.org/2000/svg"
   xmlns:sodipodi="http://sodipodi.sourceforge.net/DTD/sodipodi-0.dtd"
   xmlns:inkscape="http://www.inkscape.org/namespaces/inkscape"
   height="512px"
   viewBox="0 0 512 512"
   width="512px"
   version="1.1"
   id="svg28"
   sodipodi:docname="ZoomToFit.svg"
   inkscape:version="0.92.2 (5c3e80d, 2017-08-06)">
  <metadata
     id="metadata34">
    <rdf:RDF>
      <cc:Work
         rdf:about="">
        <dc:format>image/svg+xml</dc:format>
        <dc:type
           rdf:resource="http://purl.org/dc/dcmitype/StillImage" />
      </cc:Work>
    </rdf:RDF>
  </metadata>
  <defs
     id="defs32" />
  <sodipodi:namedview
     pagecolor="#ffffff"
     bordercolor="#666666"
     borderopacity="1"
     objecttolerance="10"
     gridtolerance="10"
     guidetolerance="10"
     inkscape:pageopacity="0"
     inkscape:pageshadow="2"
     inkscape:window-width="1920"
     inkscape:window-height="1148"
     id="namedview30"
     showgrid="false"
     inkscape:zoom="0.4609375"
     inkscape:cx="-46.644068"
     inkscape:cy="256"
     inkscape:window-x="-8"
     inkscape:window-y="-8"
     inkscape:window-maximized="1"
     inkscape:current-layer="svg28" />
  <g
     id="g854"
     transform="matrix(0.9375,0,0,0.9375,16,16)"
     style="stroke-width:1.0666666">
    <path
       id="path2"
       d="m 121,211 h 30 V 172.21094 L 339.78906,361 H 301 v 30 h 90 v -90 h -30 v 38.78906 L 172.21094,151 H 211 v -30 h -90 z m 0,0"
       inkscape:connector-curvature="0"
       style="fill:#335777;stroke-width:1.10164857" />
    <path
       id="path4"
       d="m 421,31 h -60 v 30 h 60 v 30 h 30 v 60 h 30 V 91 h 31 V 0 h -91 z m 0,0"
       inkscape:connector-curvature="0"
       style="fill:#335777;stroke-width:1.10164857" />
    <path
       id="path6"
       d="m 181,31 h 60 v 30 h -60 z m 0,0"
       inkscape:connector-curvature="0"
       style="fill:#335777;stroke-width:1.10164857" />
    <path
       id="path8"
       d="m 271,31 h 60 v 30 h -60 z m 0,0"
       inkscape:connector-curvature="0"
       style="fill:#335777;stroke-width:1.10164857" />
    <path
       id="path10"
       d="m 451,271 h 30 v 60 h -30 z m 0,0"
       inkscape:connector-curvature="0"
       style="fill:#335777;stroke-width:1.10164857" />
    <path
       id="path12"
       d="m 451,181 h 30 v 60 h -30 z m 0,0"
       inkscape:connector-curvature="0"
       style="fill:#335777;stroke-width:1.10164857" />
    <path
       id="path14"
       d="m 481,361 h -30 v 60 h -30 v 30 h -60 v 30 h 60 v 31 h 91 v -91 h -31 z m 0,0"
       inkscape:connector-curvature="0"
       style="fill:#335777;stroke-width:1.10164857" />
    <path
       id="path16"
       d="m 31,271 h 30 v 60 H 31 Z m 0,0"
       inkscape:connector-curvature="0"
       style="fill:#335777;stroke-width:1.10164857" />
    <path
       id="path18"
       d="m 31,181 h 30 v 60 H 31 Z m 0,0"
       inkscape:connector-curvature="0"
       style="fill:#335777;stroke-width:1.10164857" />
    <path
       id="path20"
       d="M 31,151 H 61 V 91 H 91 V 61 h 60 V 31 H 91 V 0 H 0 v 91 h 31 z m 0,0"
       inkscape:connector-curvature="0"
       style="fill:#335777;stroke-width:1.10164857" />
    <path
       id="path22"
       d="m 91,481 h 60 V 451 H 91 V 421 H 61 V 361 H 31 v 60 H 0 v 91 h 91 z m 0,0"
       inkscape:connector-curvature="0"
       style="fill:#335777;stroke-width:1.10164857" />
    <path
       id="path24"
       d="m 181,451 h 60 v 30 h -60 z m 0,0"
       inkscape:connector-curvature="0"
       style="fill:#335777;stroke-width:1.10164857" />
    <path
       id="path26"
       d="m 271,451 h 60 v 30 h -60 z m 0,0"
       inkscape:connector-curvature="0"
       style="fill:#335777;stroke-width:1.10164857" />
  </g>
</svg>
